src/assets/icons/comic.svg

<svg height="31" viewBox="0 0 28 31" width="28" xmlns="http://www.w3.org/2000/svg"><path d="m10.4102564 0c-1.79487178 7.04545374-4.3076923 8.80681718-10.4102564 10.9204533v4.9318211l12.9230769 15.1477256v-4.5795449c5.3846154-1.7613635 8.6153846-5.636363 10.7692308-10.215908zm2.8717949 31c6.8205128-1.7613634 11.4871795-3.5227269 13.6410256-4.5795449v-3.8640087c-3.3203836 2.5968134-9.6502431 6.2381504-13.6410256 7.7390082zm.7179487-29.23864009-.6730769.66051129 10.926282 13.3313089c.1658713.2037898.2020631.5012136.0897436.7375886-2.1871482 4.6503517-5.5335466 8.781982-11.0608974 10.6342317l.0112.7926136c5.7435897-1.4090908 10.0400641-6.4289766 13.988782-11.0085215l-13.2820512-15.14773259zm-2.6923256 3.40163314 2.8717948 3.17045418c.1817703.20342339.2276221.5138954.1121795.75958799-1.4859959 3.28107488-3.4490651 5.22056848-6.4278846 6.68216198-.28189897.1395704-.65586051.0680591-.8637641-.1651102l-3.23076923-3.5227339c-.32047795-.353717-.12667846-1.013013.33653846-1.1448863 3.47197846-1.02214736 4.60248205-2.13781257 6.00160257-5.57031184.4177026-.53436596.6728974-.5501513 1.2003026-.20916191zm-.3701744 1.71732935c-1.22460872 2.55466391-2.78237795 4.0447562-5.40705128 5.0198858l2.15384615 2.3448151c2.33345183-1.235128 3.83915183-2.7333296 5.09294873-5.32812443zm15.3685897 12.2414653c-3.3225302 3.7833382-8.2560871 8.2237002-13.0240384 9.7645762v.7045454c5.3846154-1.4090908 10.4102564-5.2840904 14.7179487-8.8068172z" fill="#f00"/></svg>

<?xml version="1.0" encoding="UTF-8"?>
<svg width="28px" height="31px" viewBox="0 0 28 31" version="1.1" xmlns="http://www.w3.org/2000/svg" xmlns:xlink="http://www.w3.org/1999/xlink">
    <title>Group@1,5x</title>
    <g id="Page-1" stroke="none" stroke-width="1" fill="none" fill-rule="evenodd">
        <g id="Guide" transform="translate(-303.000000, -823.000000)" fill="#FF0000" fill-rule="nonzero">
            <g id="Group" transform="translate(303.000000, 823.000000)">
                <path d="M10.4102564,0 C8.61538462,7.04545374 6.1025641,8.80681718 0,10.9204533 L0,15.8522744 L12.9230769,31 L12.9230769,26.4204551 C18.3076923,24.6590916 21.5384615,20.7840921 23.6923077,16.2045471 L10.4102564,0 Z M13.2820513,31 C20.1025641,29.2386366 24.7692308,27.4772731 26.9230769,26.4204551 L26.9230769,22.5564464 C23.6026933,25.1532598 17.2728338,28.7945968 13.2820513,30.2954546 L13.2820513,31 Z M14,1.76135991 L13.3269231,2.4218712 L24.2532051,15.7531801 C24.4190764,15.9569699 24.4552682,16.2543937 24.3429487,16.4907687 C22.1558005,21.1411204 18.8094021,25.2727507 13.2820513,27.1250004 L13.2932513,27.917614 C19.036841,26.5085232 23.3333154,21.4886374 27.2820333,16.9090925 L13.9999821,1.76135991 L14,1.76135991 Z M11.3076744,5.16299305 L14.1794692,8.33344723 C14.3612395,8.53687062 14.4070913,8.84734263 14.2916487,9.09303522 C12.8056528,12.3741101 10.8425836,14.3136037 7.8637641,15.7751972 C7.58186513,15.9147676 7.20790359,15.8432563 7,15.610087 L3.76923077,12.0873531 C3.44875282,11.7336361 3.64255231,11.0743401 4.10576923,10.9424668 C7.57774769,9.92031944 8.70825128,8.80465423 10.1073718,5.37215496 C10.5250744,4.837789 10.7802692,4.82200366 11.3076744,5.16299305 Z M10.9375,6.8803224 C9.71289128,9.43498631 8.15512205,10.9250786 5.53044872,11.9002082 L7.68429487,14.2450233 C10.0177467,13.0098953 11.5234467,11.5116937 12.7772436,8.91689887 L10.9375,6.8803224 Z M26.3060897,19.1217877 C22.9835595,22.9051259 18.0500026,27.3454879 13.2820513,28.8863639 L13.2820513,29.5909093 C18.6666667,28.1818185 23.6923077,24.3068189 28,20.7840921 L26.3060897,19.1217877 Z" id="Shape"></path>
            </g>
        </g>
    </g>
</svg>
